public/assets/site/hp_icon_layouts.svg

<svg xmlns="http://www.w3.org/2000/svg" viewBox="0 0 96 96" enable-background="new 0 0 96 96"><style type="text/css">.st0{display:none;} .st1{display:inline;} .st2{fill:#FFFFFF;} .st3{fill:#AED8EA;}</style><g id="BG" class="st0"><path id="XMLID_125_" class="st1" d="M0 0h96v96h-96z"/><path id="XMLID_28_" class="st1" d="M-124.3 0h96v96h-96z"/><path id="XMLID_42_" class="st1" d="M-244.2 0h96v96h-96z"/></g><g id="XMLID_307_"><path id="XMLID_155_" class="st2" d="M81 68.1v3.6h-15.6v-3.6h15.6m0-3.6h-15.6c-2 0-3.6 1.6-3.6 3.6v3.6c0 2 1.6 3.6 3.6 3.6h15.6c2 0 3.6-1.6 3.6-3.6v-3.6c0-2-1.6-3.6-3.6-3.6z"/><path id="XMLID_150_" class="st2" d="M30.6 68.1v3.6h-15.6v-3.6h15.6m0-3.6h-15.6c-2 0-3.6 1.6-3.6 3.6v3.6c0 2 1.6 3.6 3.6 3.6h15.6c2 0 3.6-1.6 3.6-3.6v-3.6c0-2-1.6-3.6-3.6-3.6z"/><path id="XMLID_147_" class="st2" d="M55.8 68.1v3.6h-15.6v-3.6h15.6m0-3.6h-15.6c-2 0-3.6 1.6-3.6 3.6v3.6c0 2 1.6 3.6 3.6 3.6h15.6c2 0 3.6-1.6 3.6-3.6v-3.6c0-2-1.6-3.6-3.6-3.6z"/><path id="XMLID_85_" class="st2" d="M81 24.3v32.4h-15.6v-32.4h15.6m0-3.6h-15.6c-2 0-3.6 1.6-3.6 3.6v32.4c0 2 1.6 3.6 3.6 3.6h15.6c2 0 3.6-1.6 3.6-3.6v-32.4c0-2-1.6-3.6-3.6-3.6z"/><path id="XMLID_81_" class="st2" d="M54.6 24.3v21h-39.6v-21h39.6m0-3.6h-39.6c-2 0-3.6 1.6-3.6 3.6v21c0 2 1.6 3.6 3.6 3.6h39.6c2 0 3.6-1.6 3.6-3.6v-21c0-2-1.6-3.6-3.6-3.6z"/><path id="XMLID_76_" class="st3" d="M54.6 20.7h-39.6c-2 0-3.6 1.6-3.6 3.6v21c0 2 1.6 3.6 3.6 3.6h39.6c2 0 3.6-1.6 3.6-3.6v-21c0-2-1.6-3.6-3.6-3.6z"/><path id="XMLID_72_" class="st2" d="M84.6 15.6c2 0 3.6 1.6 3.6 3.6v57.6c0 2-1.6 3.6-3.6 3.6h-73.2c-2 0-3.6-1.6-3.6-3.6v-57.6c0-2 1.6-3.6 3.6-3.6h73.2m0-3.6h-73.2c-4 0-7.2 3.2-7.2 7.2v57.6c0 4 3.2 7.2 7.2 7.2h73.2c4 0 7.2-4.4 7.2-7.2v-56.4c0-5.2-3.2-8.4-7.2-8.4z"/><path id="XMLID_59_" class="st2" d="M58.2 53.4h-46.8c-.3 0-.6-.3-.6-.6s.3-.6.6-.6h46.8c.3 0 .6.3.6.6s-.3.6-.6.6z"/><path id="XMLID_17_" class="st2" d="M58.2 56.4h-46.8c-.3 0-.6-.3-.6-.6s.3-.6.6-.6h46.8c.3 0 .6.3.6.6s-.3.6-.6.6z"/><path id="XMLID_16_" class="st2" d="M45.5 59.4h-34.1c-.3 0-.6-.3-.6-.6s.3-.6.6-.6h34.1c.3 0 .6.3.6.6s-.3.6-.6.6z"/></g></svg>

<?xml version="1.0" encoding="utf-8"?>
<!-- Generator: Adobe Illustrator 19.0.0, SVG Export Plug-In . SVG Version: 6.00 Build 0)  -->
<svg version="1.1" xmlns="http://www.w3.org/2000/svg" xmlns:xlink="http://www.w3.org/1999/xlink" x="0px" y="0px"
	 viewBox="0 0 96 96" style="enable-background:new 0 0 96 96;" xml:space="preserve">
<style type="text/css">
	.st0{display:none;}
	.st1{display:inline;}
	.st2{fill:#FFFFFF;}
	.st3{fill:#AED8EA;}
</style>
<g id="BG" class="st0">
	<rect id="XMLID_125_" x="0" class="st1" width="96" height="96"/>
	<rect id="XMLID_28_" x="-124.3" class="st1" width="96" height="96"/>
	<rect id="XMLID_42_" x="-244.2" class="st1" width="96" height="96"/>
</g>
<g id="Layer_1">
</g>
<g id="Layer_2">
	<g id="XMLID_307_">
		<path id="XMLID_155_" class="st2" d="M81,68.1v3.6H65.4v-3.6H81 M81,64.5H65.4c-2,0-3.6,1.6-3.6,3.6v3.6c0,2,1.6,3.6,3.6,3.6H81
			c2,0,3.6-1.6,3.6-3.6v-3.6C84.6,66.1,83,64.5,81,64.5L81,64.5z"/>
		<path id="XMLID_150_" class="st2" d="M30.6,68.1v3.6H15v-3.6H30.6 M30.6,64.5H15c-2,0-3.6,1.6-3.6,3.6v3.6c0,2,1.6,3.6,3.6,3.6
			h15.6c2,0,3.6-1.6,3.6-3.6v-3.6C34.2,66.1,32.6,64.5,30.6,64.5L30.6,64.5z"/>
		<path id="XMLID_147_" class="st2" d="M55.8,68.1v3.6H40.2v-3.6H55.8 M55.8,64.5H40.2c-2,0-3.6,1.6-3.6,3.6v3.6
			c0,2,1.6,3.6,3.6,3.6h15.6c2,0,3.6-1.6,3.6-3.6v-3.6C59.4,66.1,57.8,64.5,55.8,64.5L55.8,64.5z"/>
		<path id="XMLID_85_" class="st2" d="M81,24.3v32.4H65.4V24.3H81 M81,20.7H65.4c-2,0-3.6,1.6-3.6,3.6v32.4c0,2,1.6,3.6,3.6,3.6H81
			c2,0,3.6-1.6,3.6-3.6V24.3C84.6,22.3,83,20.7,81,20.7L81,20.7z"/>
		<path id="XMLID_81_" class="st2" d="M54.6,24.3v21H15v-21H54.6 M54.6,20.7H15c-2,0-3.6,1.6-3.6,3.6v21c0,2,1.6,3.6,3.6,3.6h39.6
			c2,0,3.6-1.6,3.6-3.6v-21C58.2,22.3,56.6,20.7,54.6,20.7L54.6,20.7z"/>
		<path id="XMLID_76_" class="st3" d="M54.6,20.7H15c-2,0-3.6,1.6-3.6,3.6v21c0,2,1.6,3.6,3.6,3.6h39.6c2,0,3.6-1.6,3.6-3.6v-21
			C58.2,22.3,56.6,20.7,54.6,20.7L54.6,20.7z"/>
		<g id="XMLID_60_">
			<g id="XMLID_61_">
				<path id="XMLID_72_" class="st2" d="M84.6,15.6c2,0,3.6,1.6,3.6,3.6v57.6c0,2-1.6,3.6-3.6,3.6H11.4c-2,0-3.6-1.6-3.6-3.6V19.2
					c0-2,1.6-3.6,3.6-3.6H84.6 M84.6,12H11.4c-4,0-7.2,3.2-7.2,7.2v57.6c0,4,3.2,7.2,7.2,7.2h73.2c4,0,7.2-4.4,7.2-7.2V20.4
					C91.8,15.2,88.6,12,84.6,12L84.6,12z"/>
			</g>
		</g>
		<path id="XMLID_59_" class="st2" d="M58.2,53.4H11.4c-0.3,0-0.6-0.3-0.6-0.6c0-0.3,0.3-0.6,0.6-0.6h46.8c0.3,0,0.6,0.3,0.6,0.6
			C58.8,53.1,58.5,53.4,58.2,53.4z"/>
		<path id="XMLID_17_" class="st2" d="M58.2,56.4H11.4c-0.3,0-0.6-0.3-0.6-0.6c0-0.3,0.3-0.6,0.6-0.6h46.8c0.3,0,0.6,0.3,0.6,0.6
			C58.8,56.1,58.5,56.4,58.2,56.4z"/>
		<path id="XMLID_16_" class="st2" d="M45.5,59.4H11.4c-0.3,0-0.6-0.3-0.6-0.6s0.3-0.6,0.6-0.6h34.1c0.3,0,0.6,0.3,0.6,0.6
			S45.8,59.4,45.5,59.4z"/>
	</g>
</g>
</svg>
